X: 1367
T: Mey İçerken
C: Şevki Bey
O: Turkey
F: http://compmusic.upf.edu/node/140
N: saba--sarki--aksak--mey_icerken--sevki_bey
N: makam= saba
N: form= sarki
N: usul= aksak = 9/8
M: 9/8
L: 1/16
K: C _2/4B _3/4d  
Q: 1/4=66
%%MIDI tuningsystem comma53
z8-z2A4B2 c8 d3cB4 c2d2 | d2c4B2z2c4d2d2c4B2c3B A4defg  | 
w:  Mey  i çer ken   |  *  *  *  düş tü  ak *  *  sin  *  *  SAZ  | 
._7/8a2agfed2 c2d4dc c3Be2dc B2c4cd cBAB | 
w:  *  câ *  *  *  *  *  *  *  *  *  *  *  mı *  ma   *  SAZ  | 
c3d ced2z2d4d2d6c2e3d c4B4  | d2c2B2A2 G2ABA2B2 cdcdc2d2 dcBAB2c2 B4 | 
w:  *  *  *  *  *  Şim di  gir *  din   |  *  *  *  *  *  bir  *  *  a vuç  *  *  *  *  *  hem   | 
z2AG A2c2cBBA B2d2dc2B cBBAA6cdcBAB  | 
w:  ka *  *  *  *  *  *  *  *  *  *  *  *  *  *  nı *  ma   SAZ  | 
c3dced2 z2d4d2 d6c2 e3dc4 B4 | d2c2 B2A2G2AB A2B2cdcd c2d2dcBA B2c2B4  | 
w:  *  *  *  *  *  Şim di  gir *  din   |  *  *  *  *  *  bir  *  *  a vuç  *  *  *  *  *  hem   | 
z2AGA2c2 cBBAB2d2 dc2BcBBA A6^3/4fg agfg | 
w:  ka *  *  *  *  *  *  *  *  *  *  *  *  *  *  nı *  ma   SAZ  | 
a3_1/4b aga2z2g4a2a8g2f2 e2d2c2d2  | \
w:  *  *  *  *  *  Can  da hî  ol  | 
d2c4B2 z2cdc2d2 d2c4B2 c3BA4 defg | 
w:  *  *  *  *  *  sun  fe da  *  *  câ *  *  SAZ  | 
._7/8a2ag fed2c2d4dcc3B e2dcB2c4cdcBAB  | 
w:  *  nâ *  *  *  *  *  *  *  *  *  *  *  nı *  ma   *  SAZ  | 
c3dced2 z2d4d2 d6c2 e3dc4 B4 | d2c2 B2A2G2AB A2B2cdcd c2d2dcBA B2c2B4  | 
w:  *  *  *  *  *  Şim di  gir *  din   |  *  *  *  *  *  bir  *  *  a vuç  *  *  *  *  *  hem   | 
z2AGA2c2 cBBAB2d2 dc2BcBBA A6cd cBAB | 
w:  ka *  *  *  *  *  *  *  *  *  *  *  *  *  *  nı *  ma   SAZ  | 
c3d ced2z2d4d2d6c2e3d c4B4  | d2c2B2A2 G2ABA2B2 cdcdc2d2 dcBAB2c2 B4 | 
w:  *  *  *  *  *  Şim di  gir *  din   |  *  *  *  *  *  bir  *  *  a vuç  *  *  *  *  *  hem   | 
z2AG A2c2cBBA B2d2dc2B cBBAA6z6  | |


